images/volume.svg

<svg width="48" height="48" viewBox="0 0 48 48" fill="none" xmlns="http://www.w3.org/2000/svg">
<circle cx="24" cy="24" r="24" fill="#3E80CE"/>
<path fill-rule="evenodd" clip-rule="evenodd" d="M26 18.2361L22 20.2361V27L26 29V18.2361ZM28 15L20.7639 18.618H17C15.8954 18.618 15 19.5135 15 20.618V26.618C15 27.7226 15.8954 28.618 17 28.618H20.764L28 32.2361V15ZM17 20.618H20V26.618H17V20.618ZM33 23.618C33 21.2074 32.0649 19.0304 30.5747 17.5582L28.9973 18.8202C30.2072 19.9097 31 21.6437 31 23.618C31 25.5924 30.2072 27.3263 28.9973 28.4158L30.5747 29.6778C32.0649 28.2056 33 26.0287 33 23.618Z" fill="white"/>
</svg>

<svg width="48" height="48" fill="none" xmlns="http://www.w3.org/2000/svg"><circle cx="24" cy="24" r="24" fill="#3E80CE"/><path fill-rule="evenodd" clip-rule="evenodd" d="M26 18.236l-4 2V27l4 2V18.236zM28 15l-7.236 3.618H17a2 2 0 00-2 2v6a2 2 0 002 2h3.764L28 32.236V15zm-11 5.618h3v6h-3v-6zm16 3c0-2.41-.935-4.588-2.425-6.06l-1.578 1.262C30.207 19.91 31 21.644 31 23.618c0 1.974-.793 3.708-2.003 4.798l1.578 1.262c1.49-1.472 2.425-3.65 2.425-6.06z" fill="#fff"/></svg>
